/* XPM */
static char *anki[] = {
/* columns rows colors chars-per-pixel */
"32 32 245 2 ",
"   c black",
".  c gray11",
"X  c gray10",
"o  c #0E1325",
"O  c #0E1224",
"+  c #0D1224",
"@  c #0E1325",
"#  c #101227",
"$  c #0F1226",
"%  c #0E1226",
"&  c #0E1226",
"*  c #0F1227",
"=  c #0F1226",
"-  c #0F1226",
";  c #0F1326",
":  c #0F1226",
">  c #0F1226",
",  c #0F1226",
"<  c #0F1226",
"1  c #0F1226",
"2  c #0F1226",
"3  c None",
"4  c #0F1226",
"5  c #0F1227",
"6  c #0F1327",
"7  c #0F1428",
"8  c #101227",
"9  c #101327",
"0  c #101328",
"q  c #111328",
"w  c #101329",
"e  c #111329",
"r  c #111429",
"t  c #11142A",
"y  c #12142A",
"u  c #12142B",
"i  c #12142C",
"p  c #13142C",
"a  c #12152C",
"s  c #12142D",
"d  c #13142D",
"f  c #12142E",
"g  c #12152E",
"h  c #13152E",
"j  c #13152F",
"k  c #101A2C",
"l  c #141630",
"z  c #141631",
"x  c #141632",
"c  c #151632",
"v  c #151732",
"b  c #151733",
"n  c #161733",
"m  c #161734",
"M  c #151934",
"N  c #161834",
"B  c #161835",
"V  c #171835",
"C  c #171836",
"Z  c #171936",
"A  c #171837",
"S  c #171937",
"D  c #181837",
"F  c #181838",
"G  c #181938",
"H  c #191938",
"J  c #181939",
"K  c #191939",
"L  c #18193A",
"P  c #191A3A",
"I  c #191A3B",
"U  c #191A3C",
"Y  c #1A1A3C",
"T  c #1A1A3D",
"R  c #1A1B3D",
"E  c #1B1B3E",
"W  c #1A1C3C",
"Q  c #1B1C3F",
"!  c #1A223F",
"~  c #152A3F",
"^  c #1B1B40",
"/  c #1C1C40",
"(  c #1C1C41",
")  c #1D1C41",
"_  c #1D1C42",
"`  c #1D1D43",
"'  c #1E1D43",
"]  c #1D1D44",
"[  c #1E1D44",
"{  c #1E1E44",
"}  c #1E1E45",
"|  c #1F1E45",
" . c #1E1E46",
".. c #1F1E46",
"X. c #1E1E47",
"o. c #1F1E47",
"O. c #1F1F47",
"+. c #1F1F48",
"@. c #201F49",
"#. c #201F4A",
"$. c #182A42",
"%. c #1D2748",
"&. c #173141",
"*. c #153542",
"=. c #1B364D",
"-. c #1D3650",
";. c #202049",
":. c #20204A",
">. c #21204A",
",. c #20204B",
"<. c #21204B",
"1. c #21204C",
"2. c #22204C",
"3. c #22204D",
"4. c #23214E",
"5. c #23214F",
"6. c #232150",
"7. c #242150",
"8. c #242250",
"9. c #242251",
"0. c #242253",
"q. c #232450",
"w. c #272454",
"e. c #262456",
"r. c #272456",
"t. c #262955",
"y. c #252857",
"u. c #272558",
"i. c #272658",
"p. c #272758",
"a. c #29255A",
"s. c #28275B",
"d. c #2A275A",
"f. c #2A265C",
"g. c #2A265D",
"h. c #2B275F",
"j. c #203454",
"k. c #2B2760",
"l. c #2D2962",
"z. c #2D2C62",
"x. c #2D2964",
"c. c #2D2A64",
"v. c #2E2A65",
"b. c #2F2B67",
"n. c #322D6B",
"m. c #322D6C",
"M. c #322D6F",
"N. c #2B3767",
"B. c #362F74",
"V. c #353273",
"C. c #373177",
"Z. c #323A74",
"A. c #373178",
"S. c #38327B",
"D. c #3B327D",
"F. c #3A337D",
"G. c #363A7A",
"H. c #373B7D",
"J. c #383C7F",
"K. c #19404E",
"L. c #1D485A",
"P. c #22435D",
"I. c #284168",
"U. c #284A6B",
"Y. c #25596E",
"T. c #2B5576",
"R. c #1D6469",
"E. c #206A70",
"W. c #237279",
"Q. c #26737D",
"!. c #3B3483",
"~. c #3C3480",
"^. c #3E3585",
"/. c #3E3686",
"(. c #3C3884",
"). c #3F3C8B",
"_. c #403789",
"`. c #40388A",
"'. c #40388B",
"]. c #41398D",
"[. c #413E8F",
"{. c #433A90",
"}. c #443A91",
"|. c #443B92",
" X c #463C95",
".X c #473D98",
"XX c #473D99",
"oX c #493E9C",
"OX c #493F9C",
"+X c #493F9E",
"@X c #4A3F9F",
"#X c #3F428E",
"$X c #335385",
"%X c #325C85",
"&X c #335F88",
"*X c #3D5D9A",
"=X c #2C6882",
"-X c #267D83",
";X c #357596",
":X c #3B74A0",
">X c #4C41A2",
",X c #4D42A4",
"<X c #4F42A8",
"1X c #4F43A8",
"2X c #4F43A9",
"3X c #5146AD",
"4X c #5145AE",
"5X c #5345B0",
"6X c #5346B0",
"7X c #5346B1",
"8X c #5648B6",
"9X c #5648B7",
"0X c #574ABA",
"qX c #4F57B3",
"wX c #5753BE",
"eX c #406EA4",
"rX c #4A68B2",
"tX c #5A4CC0",
"yX c #5C4DC2",
"uX c #5D4DC6",
"iX c #5E4FC8",
"pX c #5F4FC8",
"aX c #5F4FCA",
"sX c #5F50CA",
"dX c #5F50CB",
"fX c #5C57C9",
"gX c #5F59CE",
"hX c #6150CC",
"jX c #6151CF",
"kX c #6655D8",
"lX c #6756DA",
"zX c #6756DB",
"xX c #5368C2",
"cX c #5A62CA",
"vX c #6560DB",
"bX c #6D5AE6",
"nX c #6863E3",
"mX c #2B9598",
"MX c #2E959C",
"NX c #3E93B5",
"BX c #2DB1AC",
"VX c #32BAB8",
"CX c #3EAAC0",
"ZX c #40B1C7",
"AX c #32CBC1",
/* pixels */
"      X @ % < 4 4 4 4 4 4 4 4 4 4 4 4 4 4 4 4 4 4 < % @ X       ",
"    O = 4 4 4 4 4 4 4 4 4 4 4 4 4 4 4 4 4 4 4 4 4 4 4 4 = O     ",
"  O 2 4 4 4 4 4 4 4 4 4 4 4 4 4 4 4 4 4 4 4 4 4 4 4 4 4 4 2 O   ",
"X = 4 4 4 4 4 4 4 4 4 w w w w w 9 4 4 4 4 4 4 4 4 4 4 4 4 4 = X ",
"@ 4 4 4 4 4 4 4 w u u h h h h h u u w 4 4 4 4 4 4 4 4 4 4 4 4 @ ",
"% 4 4 4 4 4 9 u h h h z z z z z h h h u w 4 4 4 4 4 4 4 4 4 4 % ",
"< 4 4 4 4 w u h h z z S S S { S z z z h h u 4 4 4 4 4 4 4 4 4 < ",
"4 4 4 4 w u h z z S J J J u.6X{ D S S z h h u 4 4 4 4 4 4 4 4 4 ",
"4 4 4 w u h { S D J J R R F.`.R q.Z.J S z z h u 4 4 4 4 4 4 4 4 ",
"4 4 4 u h z ' aXb.R Q ' ' >XF.[.H.y.R J S z h h w 4 4 4 4 4 4 4 ",
"4 4 w h z m J :.yXm.' { { aX^.{ { ' Q R J S z h u 4 4 4 4 4 4 4 ",
"4 4 u h z S J R 0.hXl.@.:.aX:.:.+.{ ' Q R J S z h w 4 4 4 4 4 4 ",
"4 w h z S d.|.`._.A.sXh.5.aX6.5.5.@.{ ' R J S z h u 4 4 4 4 4 4 ",
"4 w h z S { @.' { :.m.aX!.hX.Xd.5.5.{ { ' R %.P.h u 4 -XBX*.4 4 ",
"4 u h z S J Q ' { 5.0.2XbXbXbXgXu.5.y.N.$X&XNXZXY.L.&.VXAXR.4 4 ",
"4 u h z D ^ n.+X4X9XtXlXbXbXbXnXcXxXrX*XeX%XU.=XS h w K.E.k 4 4 ",
"4 u h z D 2X,X2Xb.k.h.lXbXbXbXnX#X5.:.{ { :XQ S z h w 4 4 4 4 4 ",
"4 u h z S J S.w.{ 5.0.4XbXbXbXvXz.5.:.{ ' I.T.S z h 9 4 4 4 4 4 ",
"4 w h z S R  X' { :.w.uX6XsXlXV.0.5.+.{ ' R ;X! h u 4 4 4 4 4 4 ",
"4 w h z S R C.' { :.0X^.0.0.+X(.5.:.{ ' R J j.CX=.u 4 4 4 4 4 4 ",
"4 4 u h z S J R ' 6X+X:.5.5.h.wX@.{ ' ' R J S -.$.~ Q.W.4 4 4 4 ",
"4 4 w h z S J R .X+X|.{ { +.w.fXu.' ' R J S z h u 9 MXmX4 4 4 4 ",
"4 4 4 u h z S ~.9X' F.0.' B.].).J.Q R J D z z h w 4 7 4 4 4 4 4 ",
"4 4 4 w h h z S D J {  X{.b.Q d.qXR J S z z h u 4 4 4 4 4 4 4 4 ",
"4 4 4 4 w h h z S S J b.J J J J G.J S z z h u 9 4 4 4 4 4 4 4 4 ",
"< 4 4 4 4 w h h z z S S S S S S S z z h h u w 4 4 4 4 4 4 4 4 : ",
"% 4 4 4 4 4 w u h h z z z z z z z h h h u 4 4 4 4 4 4 4 4 4 4 % ",
"@ 4 4 4 4 4 4 4 w u h h h h h h h u u w 4 4 4 4 4 4 4 4 4 4 4 @ ",
"X = 4 4 4 4 4 4 4 4 w w w u w w w 4 4 4 4 4 4 4 4 4 4 4 4 4 = X ",
"  O 2 4 4 4 4 4 4 4 4 4 4 4 4 4 4 4 4 4 4 4 4 4 4 4 4 4 4 2 o   ",
"    O = 4 4 4 4 4 4 4 4 4 4 4 4 4 4 4 4 4 4 4 4 4 4 4 4 = o     ",
"      X @ % : 4 4 4 4 4 4 4 4 4 4 4 4 4 4 4 4 4 4 : % @ X       "
};
